img/linkedin.svg

<svg fill="none" height="31" viewBox="0 0 32 31" width="32" xmlns="http://www.w3.org/2000/svg" xmlns:xlink="http://www.w3.org/1999/xlink"><clipPath id="a"><path d="m.944336 0h30.9861v30.9861h-30.9861z"/></clipPath><g clip-path="url(#a)" fill="#fff"><path d="m31.9226 30.9857v-.0013h.0078v-11.3641c0-5.5594-1.1969-9.84198-7.6962-9.84198-3.1245 0-5.2212 1.71458-6.0772 3.34008h-.0903v-2.8211h-6.1624v20.6871h6.4167v-10.2435c0-2.697.5113-5.305 3.8513-5.305 3.291 0 3.3401 3.0779 3.3401 5.478v10.0718z"/><path d="m1.45703 10.2991h6.42446v20.6871h-6.42446z"/><path d="m4.66525 0c-2.05412 0-3.720914 1.66679-3.720914 3.72092 0 2.05412 1.666794 3.75577 3.720914 3.75577s3.72092-1.70165 3.72092-3.75577c-.00129-2.05413-1.66809-3.72092-3.72092-3.72092z"/></g></svg>

<svg width="32" height="31" viewBox="0 0 32 31" fill="none" xmlns="http://www.w3.org/2000/svg">
<g clip-path="url(#clip0_4_1806)">
<path d="M31.9226 30.9857V30.9844H31.9304V19.6203C31.9304 14.0609 30.7335 9.77832 24.2342 9.77832C21.1097 9.77832 19.013 11.4929 18.157 13.1184H18.0667V10.2973H11.9043V30.9844H18.321V20.7409C18.321 18.0439 18.8323 15.4359 22.1723 15.4359C25.4633 15.4359 25.5124 18.5138 25.5124 20.9139V30.9857H31.9226Z" fill="white"/>
<path d="M1.45703 10.2991H7.88149V30.9862H1.45703V10.2991Z" fill="white"/>
<path d="M4.66525 0C2.61113 0 0.944336 1.66679 0.944336 3.72092C0.944336 5.77504 2.61113 7.47669 4.66525 7.47669C6.71937 7.47669 8.38617 5.77504 8.38617 3.72092C8.38488 1.66679 6.71808 0 4.66525 0V0Z" fill="white"/>
</g>
<defs>
<clipPath id="clip0_4_1806">
<rect width="30.9861" height="30.9861" fill="white" transform="translate(0.944336)"/>
</clipPath>
</defs>
</svg>
